X: 13270
T: Five Mile Chase, The
R: reel
M: 4/4
K: Gmajor
|:~G3B d2BG|FADA FADA|~G3B d2 (3Bcd|1 egfa gedB:|2 egfa g2 z2||
gd (3Bcd ed (3Bcd|gabg agef|gd (3Bcd ed (3Bcd|egfa g3 f|
eaag efge|dedc BG (3Bcd|egfd ed (3Bcd|egfa gedB||

